X:76
M:6/8
L:1/8
K:E_
E2E F2F|B2B (G>FG)|E2E FGB|c>(BG/=B/) c3|E2E F2F|B2B (G>FG)|
e2d cBG|1 G^FG c3:|2 G^FG c2||
|:B|e2B e2B|e2B cBG|e2B e2B|c>(BG/=B/) c3|B>cd e>ge|d>cB c>BG|

